X:110
T:Paddy Cronin's
R:Jig
S:Jimmy Doyle, Kerry (accordion)
D:From RTE 'The Pure Drop'
M:6/8
Z:Bernie Stocks
K:G
|: ABG ABg | edB gdB | G2G ABB | dBG AGE | A2B A2g | edB def |
gfe fdB |1 ABG (3ABAG :|2 ABG A3 |: a2a {b}age | aga bge | gba gdB |
GAB deg | a2a {b}age | edB def | gfe fdB |1 ABG A3 :|2 ABG (3ABAG ||
